X:1
T: Bonavista Hornpipe
C:Bruce Shawyer
R:Reel
Q:232
K:C
M:4/4
L:1/8
|:G2|"C"c2ec Gcec|"G7"dBGB "C"c3c|"Dm"d2Ad fedc|"G7"BGBd fdBG|
"C"c2ec Gcec|"Dm"dAde f2de|"Dm"fdAd "C"ecGc|"G7"dBGB "C"c4|
"C"cGEG cGEG|"F"cAFA cAFA|"G"dBGB dBGB|"C"ecGc e4|
"C"cGEG cGEG|"F"cAFA c4|"G"fedc BGAB|"C"cGEG C2:|
"2nd time play last two lines one octave up"z4|
